X:1
T:Frisco, 87.87 D
T:Frisco, 87.87 D
T:Jesse B. Hardin, 1914
T:Public Domain Courtesy of the Cyber Hymnal™
C:Jesse B. Hardin, 1914
Z:Public Domain
Z:Courtesy of the Cyber Hymnal™
%%score ( 1 2 ) ( 3 4 )
L:1/8
Q:1/4=93
M:3/4
K:F
V:1 treble 
V:2 treble 
V:3 bass 
V:4 bass 
V:1
 A^G | A3 F GA | G2 F2 FF | B3 B FG | A4 FG | A3 ^G Ac | c2 B2 BB | A3 F !fermata!AG | %8
 F4 [Fc][Fc] | [Fd]3 [Fd] [FB][Fd] | [Fc]2 [FA]2 [FA][FA] | [DG]3 [Dc] [D=B][FB] | [Ec]4 [Fc][EB] | %13
 [FA]3 [EA] [EG][FA] | [FB]2 [FB]2 [FB][FB] | [FA]3 F !fermata![FA][CG] | [CF]6 |] %17
V:2
 x2 | x6 | x6 | x6 | x6 | x6 | x6 | x6 | x6 | x6 | x6 | x6 | x6 | x6 | x6 | x3 F x2 | x6 |] %17
V:3
 C=B, | C3 A, B,C | B,2 A,2 CC | D3 D D_D | C4 A,B, | C3 =B, C_E | E2 D2 D_D | C3 A, !fermata!CB, | %8
 A,4 [F,A,][F,A,] | [B,,B,]3 [B,,B,] [B,,B,][B,,B,] | [F,A,]2 [F,C]2 [F,C][F,C] | G,3 G, G,G, | %12
 [C,G,]4 [F,A,][C,G,] | F,3 [F,C] [C,C][F,_E] | [B,,_E]2 [B,,D]2 [B,,D][=B,,_D] | %15
 [C,C]3 [C,A,] !fermata![C,C][C,B,] | [F,,F,A,]6 |] %17
V:4
 x2 | x6 | x6 | x6 | x6 | x6 | x6 | x6 | x6 | x6 | x6 | G,3 G, G,G, | x6 | F,3 x3 | x6 | x6 | x6 |] %17

